X: 758
T: Ferahnâk Seyir
C: Erol Bingöl
O: Turkey
F: http://compmusic.upf.edu/node/140
N: ferahnak--seyir--sofyan--1--erol_bingol
N: makam= ferahnak
N: form= seyir
N: usul= sofyan = 4/4
M: 4/4
L: 1/16
K: C ^f ^c  
Q: 1/4=60
%%MIDI tuningsystem comma53
d4 f2e2 f4 g4  | a2g2 f2e2 f3e d4  | \
w:   |   | 
f2g2 a2b2 =c'4 b2a2  | a2g2 f2^e2 f8  | 
w:   |   | 
d2e2 f2g2 f4 e4  | e2d4c2 c3B A4  | A2B2 c2d2 c2B2 A2G2  | \
w:   |   |   | 
A2G2 F2^E2 F8  | 
w:   | 
|


